X:1
T:Title
%%score ( 1 2 ) { 3 | 4 }
L:1/8
Q:1/4=110
M:4/4
K:Bb
V:1 treble nm="Grand Piano, Unnamed-000"
V:2 treble 
V:3 bass nm="Choir Pad, Winchester New, LM"
V:4 bass 
V:1
 [DF]2 [FB]2 [DF]2 [EG]2 | G2 z2 z4 | [B,D]2 [B,E]2 [B,D]2 C2 | [DF]2 [DF]2 [C=E]2 [CF]2 | %4
w: By~Musikalisches~Handbuch~(Hamburg:~1690) * * *||||
 F2 [FB]2 [Ec]2 [Dd]2 | B-[FB] [Ee]2 [Fd]2 [Fc]2 | [Fd]2 [FB]2 [EG]2 F2 | %7
w: |||
 [DB]2 [GB]2 [FA]2 [FB]2- | [FB]6 z2 |] %9
w: ||
V:2
 x8 | ED [CF]2 [A,E]2 [B,D]2 | x8 | x8 | x8 | .G2 z2 z4 | x8 | x8 | x8 |] %9
V:3
 B,2 B,2 B,2 B,2 | E,2 F,2 F,2 F,2 | F,2 G,2 F,G, A,2 | A,2 B,A, G,2 A,2 | A,2 B,2 G,A, B,2 | %5
 B,2 B,A, B,2 A,2 | B,2 B,2 B,2 B,2 | B,2 C2 C2 D2- | D6 z2 |] %9
V:4
 B,,2 D,2 B,,2 E,2 | C,B,, A,,2 F,,2 B,,2 | B,,2 G,,2 B,,2 F,,2 | D,2 B,,2 C,2 F,2 | %4
 F,E, D,2 C,2 B,,2 | E,D, C,2 D,E, F,2 | B,,2 D,2 E,2 D,2 | G,2 E,2 F,2 B,,2- | B,,6 z2 |] %9

